public/images/companies/logo-trusted-shops.svg

<svg width="64" height="64" viewBox="0 0 64 64" fill="none" xmlns="http://www.w3.org/2000/svg">
<path fill-rule="evenodd" clip-rule="evenodd" d="M32.0008 0C49.6729 0 64 14.3254 64 31.9992C64 49.6729 49.6729 64 32.0008 64C14.3271 64 0 49.6729 0 31.9992C0 14.3254 14.3271 0 32.0008 0ZM31.7353 11.7325C20.5982 11.7325 11.5708 20.7599 11.5708 31.8969C11.5708 43.0339 20.5982 52.0597 31.7353 52.0597C42.8706 52.0597 51.8997 43.0339 51.8997 31.8969C51.8997 20.7599 42.8706 11.7325 31.7353 11.7325ZM36.6869 18.1439C40.0023 18.1439 44.464 19.4832 44.464 23.4996C44.464 30.0213 35.2153 32.6246 29.3485 34.0993L28.8325 34.2284C28.4105 34.3336 28.0096 34.433 27.6348 34.5278C27.4434 35.7385 27.2521 36.9492 27.2521 38.1615C27.2521 40.6456 28.5898 42.9416 31.3312 42.9416C34.9022 42.9416 37.7706 39.4992 39.8736 36.9492L41.4686 38.1615C38.5359 42.4946 34.4552 46.4483 28.9741 46.4483C23.1714 46.4483 19.7933 42.8146 19.7933 36.9492C19.7933 27.4517 26.8051 18.1439 36.6869 18.1439ZM36.0486 20.0556C31.4598 20.0556 29.1011 28.9807 28.2088 32.4874C32.4792 31.2124 38.4089 27.7073 38.4089 22.6699C38.4089 21.2036 37.5792 20.0556 36.0486 20.0556Z" fill="#334155"/>
</svg>

<svg xmlns="http://www.w3.org/2000/svg" width="64" height="64" fill="currentColor" viewBox="0 0 64 64">
  <path fill-rule="evenodd" d="M32 0c17.673 0 32 14.325 32 32 0 17.673-14.327 32-32 32C14.328 64 0 49.673 0 32 0 14.324 14.327 0 32 0Zm-.265 11.732c-11.137 0-20.164 9.028-20.164 20.165 0 11.137 9.027 20.163 20.164 20.163 11.136 0 20.165-9.026 20.165-20.163s-9.03-20.165-20.165-20.165Zm4.952 6.412c3.315 0 7.777 1.34 7.777 5.356 0 6.521-9.249 9.125-15.115 10.6l-.517.128-1.197.3c-.192 1.21-.383 2.421-.383 3.633 0 2.485 1.338 4.78 4.08 4.78 3.57 0 6.439-3.442 8.542-5.992l1.595 1.212c-2.933 4.334-7.014 8.287-12.495 8.287-5.803 0-9.18-3.633-9.18-9.499 0-9.497 7.011-18.805 16.893-18.805Zm-.638 1.912c-4.59 0-6.948 8.925-7.84 12.431 4.27-1.275 10.2-4.78 10.2-9.817 0-1.466-.83-2.614-2.36-2.614Z" clip-rule="evenodd"/>
</svg>
